images/50093597.svg

<?xml version="1.0" encoding="UTF-8"?>
<svg xmlns="http://www.w3.org/2000/svg" xmlns:xlink="http://www.w3.org/1999/xlink" width="300pt" height="300pt" viewBox="0 0 300 300" version="1.1">
<defs>
<g>
<symbol overflow="visible" id="glyph0-0">
<path style="stroke:none;" d="M 0.453125 1.59375 L 0.453125 -6.34375 L 4.953125 -6.34375 L 4.953125 1.59375 Z M 0.953125 1.09375 L 4.453125 1.09375 L 4.453125 -5.84375 L 0.953125 -5.84375 Z M 0.953125 1.09375 "/>
</symbol>
<symbol overflow="visible" id="glyph0-1">
<path style="stroke:none;" d="M 3.546875 -5.953125 C 2.898438 -5.953125 2.382812 -5.710938 2 -5.234375 C 1.625 -4.753906 1.4375 -4.101562 1.4375 -3.28125 C 1.4375 -2.445312 1.625 -1.789062 2 -1.3125 C 2.382812 -0.832031 2.898438 -0.59375 3.546875 -0.59375 C 4.191406 -0.59375 4.703125 -0.832031 5.078125 -1.3125 C 5.453125 -1.789062 5.640625 -2.445312 5.640625 -3.28125 C 5.640625 -4.101562 5.453125 -4.753906 5.078125 -5.234375 C 4.703125 -5.710938 4.191406 -5.953125 3.546875 -5.953125 Z M 3.546875 -6.6875 C 4.460938 -6.6875 5.195312 -6.375 5.75 -5.75 C 6.300781 -5.132812 6.578125 -4.3125 6.578125 -3.28125 C 6.578125 -2.238281 6.300781 -1.410156 5.75 -0.796875 C 5.195312 -0.179688 4.460938 0.125 3.546875 0.125 C 2.617188 0.125 1.878906 -0.179688 1.328125 -0.796875 C 0.773438 -1.410156 0.5 -2.238281 0.5 -3.28125 C 0.5 -4.3125 0.773438 -5.132812 1.328125 -5.75 C 1.878906 -6.375 2.617188 -6.6875 3.546875 -6.6875 Z M 3.546875 -6.6875 "/>
</symbol>
<symbol overflow="visible" id="glyph0-2">
<path style="stroke:none;" d="M 0.890625 -6.5625 L 2.078125 -6.5625 L 4.984375 -1.078125 L 4.984375 -6.5625 L 5.84375 -6.5625 L 5.84375 0 L 4.65625 0 L 1.75 -5.484375 L 1.75 0 L 0.890625 0 Z M 0.890625 -6.5625 "/>
</symbol>
<symbol overflow="visible" id="glyph0-3">
<path style="stroke:none;" d="M 0.890625 -6.5625 L 1.765625 -6.5625 L 1.765625 -3.875 L 5 -3.875 L 5 -6.5625 L 5.890625 -6.5625 L 5.890625 0 L 5 0 L 5 -3.125 L 1.765625 -3.125 L 1.765625 0 L 0.890625 0 Z M 0.890625 -6.5625 "/>
</symbol>
</g>
</defs>
<g id="surface17829">
<rect x="0" y="0" width="300" height="300" style="fill:rgb(100%,100%,100%);fill-opacity:1;stroke:none;"/>
<path style="fill:none;stroke-width:1.2;stroke-linecap:butt;stroke-linejoin:miter;stroke:rgb(100%,0%,0%);stroke-opacity:1;stroke-miterlimit:10;" d="M 193.175781 149.480469 L 194.332031 139.132812 "/>
<path style="fill:none;stroke-width:1.2;stroke-linecap:butt;stroke-linejoin:miter;stroke:rgb(0%,0%,0%);stroke-opacity:1;stroke-miterlimit:10;" d="M 194.332031 139.132812 L 195.484375 128.785156 "/>
<path style="fill:none;stroke-width:1.2;stroke-linecap:butt;stroke-linejoin:miter;stroke:rgb(100%,0%,0%);stroke-opacity:1;stroke-miterlimit:10;" d="M 188.308594 148.9375 L 189.460938 138.589844 "/>
<path style="fill:none;stroke-width:1.2;stroke-linecap:butt;stroke-linejoin:miter;stroke:rgb(0%,0%,0%);stroke-opacity:1;stroke-miterlimit:10;" d="M 189.460938 138.589844 L 190.617188 128.242188 "/>
<path style=" stroke:none;fill-rule:nonzero;fill:rgb(100%,100%,100%);fill-opacity:1;" d="M 186.742188 143.710938 L 194.742188 143.710938 L 194.742188 154.710938 L 186.742188 154.710938 Z M 186.742188 143.710938 "/>
<g style="fill:rgb(100%,0%,0%);fill-opacity:1;">
  <use xlink:href="#glyph0-1" x="186.742188" y="152.374023"/>
</g>
<path style="fill:none;stroke-width:1.2;stroke-linecap:butt;stroke-linejoin:miter;stroke:rgb(0%,0%,0%);stroke-opacity:1;stroke-miterlimit:10;" d="M 193.050781 128.511719 L 202.589844 124.335938 "/>
<path style="fill:none;stroke-width:1.2;stroke-linecap:butt;stroke-linejoin:miter;stroke:rgb(0%,0%,100%);stroke-opacity:1;stroke-miterlimit:10;" d="M 202.589844 124.335938 L 212.128906 120.164062 "/>
<path style="fill:none;stroke-width:1.2;stroke-linecap:butt;stroke-linejoin:miter;stroke:rgb(0%,0%,0%);stroke-opacity:1;stroke-miterlimit:10;" d="M 193.050781 128.511719 L 176.28125 116.164062 "/>
<path style="fill:none;stroke-width:1.2;stroke-linecap:butt;stroke-linejoin:miter;stroke:rgb(0%,0%,100%);stroke-opacity:1;stroke-miterlimit:10;" d="M 212.128906 120.164062 L 220.515625 126.335938 "/>
<path style="fill:none;stroke-width:1.2;stroke-linecap:butt;stroke-linejoin:miter;stroke:rgb(0%,0%,0%);stroke-opacity:1;stroke-miterlimit:10;" d="M 220.515625 126.335938 L 228.898438 132.511719 "/>
<path style=" stroke:none;fill-rule:nonzero;fill:rgb(100%,100%,100%);fill-opacity:1;" d="M 205.128906 114.664062 L 219.128906 114.664062 L 219.128906 125.664062 L 205.128906 125.664062 Z M 205.128906 114.664062 "/>
<g style="fill:rgb(0%,0%,100%);fill-opacity:1;">
  <use xlink:href="#glyph0-2" x="205.128906" y="123.327148"/>
  <use xlink:href="#glyph0-3" x="212.106445" y="123.327148"/>
</g>
<path style="fill:none;stroke-width:1.2;stroke-linecap:butt;stroke-linejoin:miter;stroke:rgb(0%,0%,0%);stroke-opacity:1;stroke-miterlimit:10;" d="M 228.898438 132.511719 L 226.589844 153.207031 "/>
<path style="fill:none;stroke-width:1.2;stroke-linecap:butt;stroke-linejoin:miter;stroke:rgb(0%,0%,0%);stroke-opacity:1;stroke-miterlimit:10;" d="M 233.539062 135.125 L 231.691406 151.683594 "/>
<path style="fill:none;stroke-width:1.2;stroke-linecap:butt;stroke-linejoin:miter;stroke:rgb(0%,0%,0%);stroke-opacity:1;stroke-miterlimit:10;" d="M 247.980469 124.160156 L 228.898438 132.511719 "/>
<path style="fill:none;stroke-width:1.2;stroke-linecap:butt;stroke-linejoin:miter;stroke:rgb(0%,0%,0%);stroke-opacity:1;stroke-miterlimit:10;" d="M 226.589844 153.207031 L 243.363281 165.558594 "/>
<path style="fill:none;stroke-width:1.2;stroke-linecap:butt;stroke-linejoin:miter;stroke:rgb(0%,0%,0%);stroke-opacity:1;stroke-miterlimit:10;" d="M 243.363281 165.558594 L 262.441406 157.207031 "/>
<path style="fill:none;stroke-width:1.2;stroke-linecap:butt;stroke-linejoin:miter;stroke:rgb(0%,0%,0%);stroke-opacity:1;stroke-miterlimit:10;" d="M 243.304688 160.234375 L 258.570312 153.554688 "/>
<path style="fill:none;stroke-width:1.2;stroke-linecap:butt;stroke-linejoin:miter;stroke:rgb(0%,0%,0%);stroke-opacity:1;stroke-miterlimit:10;" d="M 262.441406 157.207031 L 264.75 136.507812 "/>
<path style="fill:none;stroke-width:1.2;stroke-linecap:butt;stroke-linejoin:miter;stroke:rgb(0%,0%,0%);stroke-opacity:1;stroke-miterlimit:10;" d="M 264.75 136.507812 L 247.980469 124.160156 "/>
<path style="fill:none;stroke-width:1.2;stroke-linecap:butt;stroke-linejoin:miter;stroke:rgb(0%,0%,0%);stroke-opacity:1;stroke-miterlimit:10;" d="M 260.167969 139.222656 L 246.75 129.34375 "/>
<path style="fill:none;stroke-width:1.2;stroke-linecap:butt;stroke-linejoin:miter;stroke:rgb(0%,0%,0%);stroke-opacity:1;stroke-miterlimit:10;" d="M 176.28125 116.164062 L 166.742188 120.339844 "/>
<path style="fill:none;stroke-width:1.2;stroke-linecap:butt;stroke-linejoin:miter;stroke:rgb(0%,0%,100%);stroke-opacity:1;stroke-miterlimit:10;" d="M 166.742188 120.339844 L 157.199219 124.515625 "/>
<path style="fill:none;stroke-width:1.2;stroke-linecap:butt;stroke-linejoin:miter;stroke:rgb(0%,0%,100%);stroke-opacity:1;stroke-miterlimit:10;" d="M 157.199219 124.515625 L 152.742188 144.855469 "/>
<path style="fill:none;stroke-width:1.2;stroke-linecap:butt;stroke-linejoin:miter;stroke:rgb(0%,0%,0%);stroke-opacity:1;stroke-miterlimit:10;" d="M 139.230469 113.988281 L 148.214844 119.25 "/>
<path style="fill:none;stroke-width:1.2;stroke-linecap:butt;stroke-linejoin:miter;stroke:rgb(0%,0%,100%);stroke-opacity:1;stroke-miterlimit:10;" d="M 148.214844 119.25 L 157.199219 124.515625 "/>
<path style=" stroke:none;fill-rule:nonzero;fill:rgb(100%,100%,100%);fill-opacity:1;" d="M 154.199219 119.015625 L 161.199219 119.015625 L 161.199219 130.015625 L 154.199219 130.015625 Z M 154.199219 119.015625 "/>
<g style="fill:rgb(0%,0%,100%);fill-opacity:1;">
  <use xlink:href="#glyph0-2" x="154.199219" y="127.678711"/>
</g>
<path style="fill:none;stroke-width:1.2;stroke-linecap:butt;stroke-linejoin:miter;stroke:rgb(0%,0%,100%);stroke-opacity:1;stroke-miterlimit:10;" d="M 152.742188 144.855469 L 142.378906 145.878906 "/>
<path style="fill:none;stroke-width:1.2;stroke-linecap:butt;stroke-linejoin:miter;stroke:rgb(0%,0%,0%);stroke-opacity:1;stroke-miterlimit:10;" d="M 142.378906 145.878906 L 132.015625 146.902344 "/>
<path style="fill:none;stroke-width:1.2;stroke-linecap:butt;stroke-linejoin:miter;stroke:rgb(0%,0%,100%);stroke-opacity:1;stroke-miterlimit:10;" d="M 150.1875 140.183594 L 141.898438 141.003906 "/>
<path style="fill:none;stroke-width:1.2;stroke-linecap:butt;stroke-linejoin:miter;stroke:rgb(0%,0%,0%);stroke-opacity:1;stroke-miterlimit:10;" d="M 141.898438 141.003906 L 133.609375 141.820312 "/>
<path style=" stroke:none;fill-rule:nonzero;fill:rgb(100%,100%,100%);fill-opacity:1;" d="M 149.742188 139.355469 L 156.742188 139.355469 L 156.742188 150.355469 L 149.742188 150.355469 Z M 149.742188 139.355469 "/>
<g style="fill:rgb(0%,0%,100%);fill-opacity:1;">
  <use xlink:href="#glyph0-2" x="149.742188" y="148.018555"/>
</g>
<path style="fill:none;stroke-width:1.2;stroke-linecap:butt;stroke-linejoin:miter;stroke:rgb(0%,0%,0%);stroke-opacity:1;stroke-miterlimit:10;" d="M 132.015625 146.902344 L 123.667969 127.824219 "/>
<path style="fill:none;stroke-width:1.2;stroke-linecap:butt;stroke-linejoin:miter;stroke:rgb(0%,0%,0%);stroke-opacity:1;stroke-miterlimit:10;" d="M 132.015625 146.902344 L 121.488281 164.871094 "/>
<path style="fill:none;stroke-width:1.2;stroke-linecap:butt;stroke-linejoin:miter;stroke:rgb(0%,0%,0%);stroke-opacity:1;stroke-miterlimit:10;" d="M 123.667969 127.824219 L 139.230469 113.988281 "/>
<path style="fill:none;stroke-width:1.2;stroke-linecap:butt;stroke-linejoin:miter;stroke:rgb(0%,0%,0%);stroke-opacity:1;stroke-miterlimit:10;" d="M 128.480469 130.101562 L 140.929688 119.03125 "/>
<path style="fill:none;stroke-width:1.2;stroke-linecap:butt;stroke-linejoin:miter;stroke:rgb(0%,0%,0%);stroke-opacity:1;stroke-miterlimit:10;" d="M 123.667969 127.824219 L 103.324219 123.363281 "/>
<path style="fill:none;stroke-width:1.2;stroke-linecap:butt;stroke-linejoin:miter;stroke:rgb(0%,0%,0%);stroke-opacity:1;stroke-miterlimit:10;" d="M 103.324219 123.363281 L 97.015625 103.515625 "/>
<path style="fill:none;stroke-width:1.2;stroke-linecap:butt;stroke-linejoin:miter;stroke:rgb(0%,0%,0%);stroke-opacity:1;stroke-miterlimit:10;" d="M 103.324219 123.363281 L 89.289062 138.75 "/>
<path style="fill:none;stroke-width:1.2;stroke-linecap:butt;stroke-linejoin:miter;stroke:rgb(0%,0%,0%);stroke-opacity:1;stroke-miterlimit:10;" d="M 98.300781 121.601562 L 87.074219 133.910156 "/>
<path style="fill:none;stroke-width:1.2;stroke-linecap:butt;stroke-linejoin:miter;stroke:rgb(0%,0%,0%);stroke-opacity:1;stroke-miterlimit:10;" d="M 97.015625 103.515625 L 76.671875 99.058594 "/>
<path style="fill:none;stroke-width:1.2;stroke-linecap:butt;stroke-linejoin:miter;stroke:rgb(0%,0%,0%);stroke-opacity:1;stroke-miterlimit:10;" d="M 93.929688 107.855469 L 77.65625 104.289062 "/>
<path style="fill:none;stroke-width:1.2;stroke-linecap:butt;stroke-linejoin:miter;stroke:rgb(0%,0%,0%);stroke-opacity:1;stroke-miterlimit:10;" d="M 76.671875 99.058594 L 62.636719 114.445312 "/>
<path style="fill:none;stroke-width:1.2;stroke-linecap:butt;stroke-linejoin:miter;stroke:rgb(0%,0%,0%);stroke-opacity:1;stroke-miterlimit:10;" d="M 62.636719 114.445312 L 65.792969 124.367188 "/>
<path style="fill:none;stroke-width:1.2;stroke-linecap:butt;stroke-linejoin:miter;stroke:rgb(0%,0%,100%);stroke-opacity:1;stroke-miterlimit:10;" d="M 65.792969 124.367188 L 68.945312 134.292969 "/>
<path style="fill:none;stroke-width:1.2;stroke-linecap:butt;stroke-linejoin:miter;stroke:rgb(0%,0%,100%);stroke-opacity:1;stroke-miterlimit:10;" d="M 41.8125 114.3125 L 52.222656 114.378906 "/>
<path style="fill:none;stroke-width:1.2;stroke-linecap:butt;stroke-linejoin:miter;stroke:rgb(0%,0%,0%);stroke-opacity:1;stroke-miterlimit:10;" d="M 52.222656 114.378906 L 62.636719 114.445312 "/>
<path style="fill:none;stroke-width:1.2;stroke-linecap:butt;stroke-linejoin:miter;stroke:rgb(0%,0%,100%);stroke-opacity:1;stroke-miterlimit:10;" d="M 43.863281 119.226562 L 52.191406 119.277344 "/>
<path style="fill:none;stroke-width:1.2;stroke-linecap:butt;stroke-linejoin:miter;stroke:rgb(0%,0%,0%);stroke-opacity:1;stroke-miterlimit:10;" d="M 52.191406 119.277344 L 60.523438 119.332031 "/>
<path style="fill:none;stroke-width:1.2;stroke-linecap:butt;stroke-linejoin:miter;stroke:rgb(0%,0%,100%);stroke-opacity:1;stroke-miterlimit:10;" d="M 68.945312 134.292969 L 52.019531 146.425781 "/>
<path style="fill:none;stroke-width:1.2;stroke-linecap:butt;stroke-linejoin:miter;stroke:rgb(0%,0%,100%);stroke-opacity:1;stroke-miterlimit:10;" d="M 68.945312 134.292969 L 79.117188 136.523438 "/>
<path style="fill:none;stroke-width:1.2;stroke-linecap:butt;stroke-linejoin:miter;stroke:rgb(0%,0%,0%);stroke-opacity:1;stroke-miterlimit:10;" d="M 79.117188 136.523438 L 89.289062 138.75 "/>
<path style=" stroke:none;fill-rule:nonzero;fill:rgb(100%,100%,100%);fill-opacity:1;" d="M 65.945312 128.792969 L 72.945312 128.792969 L 72.945312 139.792969 L 65.945312 139.792969 Z M 65.945312 128.792969 "/>
<g style="fill:rgb(0%,0%,100%);fill-opacity:1;">
  <use xlink:href="#glyph0-2" x="65.945312" y="137.456055"/>
</g>
<path style="fill:none;stroke-width:1.2;stroke-linecap:butt;stroke-linejoin:miter;stroke:rgb(0%,0%,100%);stroke-opacity:1;stroke-miterlimit:10;" d="M 52.019531 146.425781 L 43.636719 140.253906 "/>
<path style="fill:none;stroke-width:1.2;stroke-linecap:butt;stroke-linejoin:miter;stroke:rgb(0%,0%,0%);stroke-opacity:1;stroke-miterlimit:10;" d="M 43.636719 140.253906 L 35.25 134.078125 "/>
<path style="fill:none;stroke-width:1.2;stroke-linecap:butt;stroke-linejoin:miter;stroke:rgb(0%,0%,100%);stroke-opacity:1;stroke-miterlimit:10;" d="M 53.25 141.246094 L 46.539062 136.304688 "/>
<path style="fill:none;stroke-width:1.2;stroke-linecap:butt;stroke-linejoin:miter;stroke:rgb(0%,0%,0%);stroke-opacity:1;stroke-miterlimit:10;" d="M 46.539062 136.304688 L 39.832031 131.367188 "/>
<path style=" stroke:none;fill-rule:nonzero;fill:rgb(100%,100%,100%);fill-opacity:1;" d="M 49.019531 140.925781 L 56.019531 140.925781 L 56.019531 151.925781 L 49.019531 151.925781 Z M 49.019531 140.925781 "/>
<g style="fill:rgb(0%,0%,100%);fill-opacity:1;">
  <use xlink:href="#glyph0-2" x="49.019531" y="149.588867"/>
</g>
<path style="fill:none;stroke-width:1.2;stroke-linecap:butt;stroke-linejoin:miter;stroke:rgb(0%,0%,0%);stroke-opacity:1;stroke-miterlimit:10;" d="M 35.25 134.078125 L 38.53125 124.195312 "/>
<path style="fill:none;stroke-width:1.2;stroke-linecap:butt;stroke-linejoin:miter;stroke:rgb(0%,0%,100%);stroke-opacity:1;stroke-miterlimit:10;" d="M 38.53125 124.195312 L 41.8125 114.3125 "/>
<path style=" stroke:none;fill-rule:nonzero;fill:rgb(100%,100%,100%);fill-opacity:1;" d="M 38.8125 108.8125 L 45.8125 108.8125 L 45.8125 119.8125 L 38.8125 119.8125 Z M 38.8125 108.8125 "/>
<g style="fill:rgb(0%,0%,100%);fill-opacity:1;">
  <use xlink:href="#glyph0-2" x="38.8125" y="117.475586"/>
</g>
<path style="fill:none;stroke-width:1.2;stroke-linecap:butt;stroke-linejoin:miter;stroke:rgb(0%,0%,0%);stroke-opacity:1;stroke-miterlimit:10;" d="M 121.488281 164.871094 L 111.074219 164.804688 "/>
<path style="fill:none;stroke-width:1.2;stroke-linecap:butt;stroke-linejoin:miter;stroke:rgb(0%,0%,100%);stroke-opacity:1;stroke-miterlimit:10;" d="M 111.074219 164.804688 L 100.664062 164.738281 "/>
<path style="fill:none;stroke-width:1.2;stroke-linecap:butt;stroke-linejoin:miter;stroke:rgb(0%,0%,0%);stroke-opacity:1;stroke-miterlimit:10;" d="M 119.375 169.757812 L 111.042969 169.707031 "/>
<path style="fill:none;stroke-width:1.2;stroke-linecap:butt;stroke-linejoin:miter;stroke:rgb(0%,0%,100%);stroke-opacity:1;stroke-miterlimit:10;" d="M 111.042969 169.707031 L 102.714844 169.652344 "/>
<path style="fill:none;stroke-width:1.2;stroke-linecap:butt;stroke-linejoin:miter;stroke:rgb(0%,0%,0%);stroke-opacity:1;stroke-miterlimit:10;" d="M 131.785156 182.972656 L 121.488281 164.871094 "/>
<path style="fill:none;stroke-width:1.2;stroke-linecap:butt;stroke-linejoin:miter;stroke:rgb(0%,0%,100%);stroke-opacity:1;stroke-miterlimit:10;" d="M 100.664062 164.738281 L 95.398438 173.722656 "/>
<path style="fill:none;stroke-width:1.2;stroke-linecap:butt;stroke-linejoin:miter;stroke:rgb(0%,0%,0%);stroke-opacity:1;stroke-miterlimit:10;" d="M 95.398438 173.722656 L 90.136719 182.707031 "/>
<path style=" stroke:none;fill-rule:nonzero;fill:rgb(100%,100%,100%);fill-opacity:1;" d="M 97.664062 159.238281 L 104.664062 159.238281 L 104.664062 170.238281 L 97.664062 170.238281 Z M 97.664062 159.238281 "/>
<g style="fill:rgb(0%,0%,100%);fill-opacity:1;">
  <use xlink:href="#glyph0-2" x="97.664062" y="167.901367"/>
</g>
<path style="fill:none;stroke-width:1.2;stroke-linecap:butt;stroke-linejoin:miter;stroke:rgb(0%,0%,0%);stroke-opacity:1;stroke-miterlimit:10;" d="M 90.136719 182.707031 L 100.433594 200.8125 "/>
<path style="fill:none;stroke-width:1.2;stroke-linecap:butt;stroke-linejoin:miter;stroke:rgb(0%,0%,0%);stroke-opacity:1;stroke-miterlimit:10;" d="M 95.425781 182.097656 L 103.664062 196.578125 "/>
<path style="fill:none;stroke-width:1.2;stroke-linecap:butt;stroke-linejoin:miter;stroke:rgb(0%,0%,0%);stroke-opacity:1;stroke-miterlimit:10;" d="M 90.136719 182.707031 L 69.308594 182.578125 "/>
<path style="fill:none;stroke-width:1.2;stroke-linecap:butt;stroke-linejoin:miter;stroke:rgb(0%,0%,0%);stroke-opacity:1;stroke-miterlimit:10;" d="M 100.433594 200.8125 L 121.257812 200.941406 "/>
<path style="fill:none;stroke-width:1.2;stroke-linecap:butt;stroke-linejoin:miter;stroke:rgb(0%,0%,0%);stroke-opacity:1;stroke-miterlimit:10;" d="M 121.257812 200.941406 L 131.785156 182.972656 "/>
<path style="fill:none;stroke-width:1.2;stroke-linecap:butt;stroke-linejoin:miter;stroke:rgb(0%,0%,0%);stroke-opacity:1;stroke-miterlimit:10;" d="M 118.082031 196.667969 L 126.507812 182.292969 "/>
</g>
</svg>

<svg xmlns="http://www.w3.org/2000/svg" xmlns:xlink="http://www.w3.org/1999/xlink" width="300pt" height="300pt" viewBox="0 0 300 300"><defs><symbol overflow="visible"><path d="M.453 1.594v-7.938h4.5v7.938zm.5-.5h3.5v-6.938h-3.5zm0 0"/></symbol><symbol overflow="visible" id="a"><path d="M3.547-5.953c-.65 0-1.164.242-1.547.72-.375.48-.563 1.13-.563 1.952 0 .835.188 1.49.563 1.967.383.48.898.72 1.547.72.644 0 1.156-.24 1.53-.72.376-.476.564-1.132.564-1.968 0-.822-.187-1.474-.562-1.954-.375-.477-.887-.72-1.53-.72zm0-.734c.914 0 1.648.312 2.203.937.55.617.828 1.438.828 2.47 0 1.042-.277 1.87-.828 2.483-.555.617-1.29.922-2.203.922-.93 0-1.668-.305-2.22-.922C.774-1.41.5-2.237.5-3.28c0-1.033.273-1.853.828-2.47.55-.625 1.29-.938 2.22-.938zm0 0"/></symbol><symbol overflow="visible" id="b"><path d="M.89-6.563H2.08l2.906 5.485v-5.484h.86V0H4.656L1.75-5.484V0H.89zm0 0"/></symbol><symbol overflow="visible" id="c"><path d="M.89-6.563h.876v2.688H5v-2.688h.89V0H5v-3.125H1.766V0H.89zm0 0"/></symbol></defs><g><path fill="#fff" d="M0 0h300v300H0z"/><path d="M193.176 149.48l1.156-10.347" stroke-width="1.2" stroke="#f00" stroke-miterlimit="10" fill="none"/><path d="M194.332 139.133l1.152-10.348" stroke-width="1.2" stroke="#000" stroke-miterlimit="10" fill="none"/><path d="M188.31 148.938l1.15-10.348" stroke-width="1.2" stroke="#f00" stroke-miterlimit="10" fill="none"/><path d="M189.46 138.59l1.157-10.348" stroke-width="1.2" stroke="#000" stroke-miterlimit="10" fill="none"/><path d="M186.742 143.71h8v11h-8zm0 0" fill="#fff"/><use xlink:href="#a" x="186.742" y="152.374" fill="#f00"/><path d="M193.05 128.512l9.54-4.176" stroke-width="1.2" stroke="#000" stroke-miterlimit="10" fill="none"/><path d="M202.59 124.336l9.54-4.172" stroke-width="1.2" stroke="#00f" stroke-miterlimit="10" fill="none"/><path d="M193.05 128.512l-16.77-12.348" stroke-width="1.2" stroke="#000" stroke-miterlimit="10" fill="none"/><path d="M212.13 120.164l8.386 6.172" stroke-width="1.2" stroke="#00f" stroke-miterlimit="10" fill="none"/><path d="M220.516 126.336l8.382 6.176" stroke-width="1.2" stroke="#000" stroke-miterlimit="10" fill="none"/><path d="M205.13 114.664h14v11h-14zm0 0" fill="#fff"/><g fill="#00f"><use xlink:href="#b" x="205.129" y="123.327"/><use xlink:href="#c" x="212.106" y="123.327"/></g><path d="M228.898 132.512l-2.308 20.695M233.54 135.125l-1.85 16.56M247.98 124.16l-19.082 8.352M226.59 153.207l16.773 12.352M243.363 165.56l19.078-8.353M243.305 160.234l15.265-6.68M262.44 157.207l2.31-20.7M264.75 136.508l-16.77-12.348M260.168 139.223l-13.418-9.88M176.28 116.164l-9.538 4.176" stroke-width="1.2" stroke="#000" stroke-miterlimit="10" fill="none"/><path d="M166.742 120.34l-9.543 4.176M157.2 124.516l-4.458 20.34" stroke-width="1.2" stroke="#00f" stroke-miterlimit="10" fill="none"/><path d="M139.23 113.988l8.985 5.262" stroke-width="1.2" stroke="#000" stroke-miterlimit="10" fill="none"/><path d="M148.215 119.25l8.984 5.266" stroke-width="1.2" stroke="#00f" stroke-miterlimit="10" fill="none"/><path d="M154.2 119.016h7v11h-7zm0 0" fill="#fff"/><use xlink:href="#b" x="154.199" y="127.679" fill="#00f"/><path d="M152.742 144.855l-10.363 1.024" stroke-width="1.2" stroke="#00f" stroke-miterlimit="10" fill="none"/><path d="M142.38 145.88l-10.364 1.022" stroke-width="1.2" stroke="#000" stroke-miterlimit="10" fill="none"/><path d="M150.188 140.184l-8.29.82" stroke-width="1.2" stroke="#00f" stroke-miterlimit="10" fill="none"/><path d="M141.898 141.004l-8.29.816" stroke-width="1.2" stroke="#000" stroke-miterlimit="10" fill="none"/><path d="M149.742 139.355h7v11h-7zm0 0" fill="#fff"/><use xlink:href="#b" x="149.742" y="148.019" fill="#00f"/><path d="M132.016 146.902l-8.348-19.078M132.016 146.902l-10.528 17.97M123.668 127.824l15.562-13.836M128.48 130.102l12.45-11.07M123.668 127.824l-20.344-4.46M103.324 123.363l-6.308-19.847M103.324 123.363L89.29 138.75M98.3 121.602L87.075 133.91M97.016 103.516L76.672 99.06M93.93 107.855l-16.274-3.566M76.672 99.06l-14.035 15.385M62.637 114.445l3.156 9.922" stroke-width="1.2" stroke="#000" stroke-miterlimit="10" fill="none"/><path d="M65.793 124.367l3.152 9.926M41.813 114.313l10.41.066" stroke-width="1.2" stroke="#00f" stroke-miterlimit="10" fill="none"/><path d="M52.223 114.38l10.414.065" stroke-width="1.2" stroke="#000" stroke-miterlimit="10" fill="none"/><path d="M43.863 119.227l8.328.05" stroke-width="1.2" stroke="#00f" stroke-miterlimit="10" fill="none"/><path d="M52.19 119.277l8.333.055" stroke-width="1.2" stroke="#000" stroke-miterlimit="10" fill="none"/><path d="M68.945 134.293L52.02 146.426M68.945 134.293l10.172 2.23" stroke-width="1.2" stroke="#00f" stroke-miterlimit="10" fill="none"/><path d="M79.117 136.523l10.172 2.227" stroke-width="1.2" stroke="#000" stroke-miterlimit="10" fill="none"/><path d="M65.945 128.793h7v11h-7zm0 0" fill="#fff"/><use xlink:href="#b" x="65.945" y="137.456" fill="#00f"/><path d="M52.02 146.426l-8.383-6.172" stroke-width="1.2" stroke="#00f" stroke-miterlimit="10" fill="none"/><path d="M43.637 140.254l-8.387-6.176" stroke-width="1.2" stroke="#000" stroke-miterlimit="10" fill="none"/><path d="M53.25 141.246l-6.71-4.94" stroke-width="1.2" stroke="#00f" stroke-miterlimit="10" fill="none"/><path d="M46.54 136.305l-6.708-4.938" stroke-width="1.2" stroke="#000" stroke-miterlimit="10" fill="none"/><path d="M49.02 140.926h7v11h-7zm0 0" fill="#fff"/><use xlink:href="#b" x="49.02" y="149.589" fill="#00f"/><path d="M35.25 134.078l3.28-9.883" stroke-width="1.2" stroke="#000" stroke-miterlimit="10" fill="none"/><path d="M38.53 124.195l3.282-9.882" stroke-width="1.2" stroke="#00f" stroke-miterlimit="10" fill="none"/><path d="M38.813 108.813h7v11h-7zm0 0" fill="#fff"/><use xlink:href="#b" x="38.813" y="117.476" fill="#00f"/><path d="M121.488 164.87l-10.414-.065" stroke-width="1.2" stroke="#000" stroke-miterlimit="10" fill="none"/><path d="M111.074 164.805l-10.41-.067" stroke-width="1.2" stroke="#00f" stroke-miterlimit="10" fill="none"/><path d="M119.375 169.758l-8.332-.05" stroke-width="1.2" stroke="#000" stroke-miterlimit="10" fill="none"/><path d="M111.043 169.707l-8.328-.055" stroke-width="1.2" stroke="#00f" stroke-miterlimit="10" fill="none"/><path d="M131.785 182.973l-10.297-18.102" stroke-width="1.2" stroke="#000" stroke-miterlimit="10" fill="none"/><path d="M100.664 164.738l-5.266 8.985" stroke-width="1.2" stroke="#00f" stroke-miterlimit="10" fill="none"/><path d="M95.398 173.723l-5.26 8.984" stroke-width="1.2" stroke="#000" stroke-miterlimit="10" fill="none"/><path d="M97.664 159.238h7v11h-7zm0 0" fill="#fff"/><use xlink:href="#b" x="97.664" y="167.901" fill="#00f"/><path d="M90.137 182.707l10.297 18.106M95.426 182.098l8.238 14.48M90.137 182.707l-20.828-.13M100.434 200.813l20.824.128M121.258 200.94l10.527-17.967M118.082 196.668l8.426-14.375" stroke-width="1.2" stroke="#000" stroke-miterlimit="10" fill="none"/></g></svg>
